material/.icons/material/home-floor-b.svg

<svg xmlns="http://www.w3.org/2000/svg" viewBox="0 0 24 24"><path d="M12 3L2 12h3v8h14v-8h3L12 3M9 8h4a2 2 0 012 2v1.5a1.5 1.5 0 01-1.5 1.5 1.5 1.5 0 011.5 1.5V16a2 2 0 01-2 2H9V8m2 2v2h2v-2h-2m0 4v2h2v-2h-2z"/></svg>

<?xml version="1.0" encoding="UTF-8"?><!DOCTYPE svg PUBLIC "-//W3C//DTD SVG 1.1//EN" "http://www.w3.org/Graphics/SVG/1.1/DTD/svg11.dtd"><svg xmlns="http://www.w3.org/2000/svg" xmlns:xlink="http://www.w3.org/1999/xlink" version="1.1" id="mdi-home-floor-b" width="24" height="24" viewBox="0 0 24 24"><path d="M12,3L2,12H5V20H19V12H22L12,3M9,8H13A2,2 0 0,1 15,10V11.5A1.5,1.5 0 0,1 13.5,13A1.5,1.5 0 0,1 15,14.5V16A2,2 0 0,1 13,18H9V8M11,10V12H13V10H11M11,14V16H13V14H11Z" /></svg>
